gama.ui.shared/icons_svg/dark/views/layout.horizontal.svg

<svg height="25" viewBox="-850.483 -3025.285 25 25" width="25" xmlns="http://www.w3.org/2000/svg"><g fill="none"><path d="m-825.9828-3020.9447v16.32c0 2.1207-1.7192 3.84-3.84 3.84h-3.4247c-2.1208 0-3.84-1.7193-3.84-3.84v-16.32c0-2.1208 1.7192-3.84 3.84-3.84h3.4247c2.1208 0 3.84 1.7192 3.84 3.84z" fill="#666"/><path d="m-825.9828-3020.9447v16.32c0 2.1207-1.7192 3.84-3.84 3.84h-3.4247c-2.1208 0-3.84-1.7193-3.84-3.84v-16.32c0-2.1208 1.7192-3.84 3.84-3.84h3.4247c2.1208 0 3.84 1.7192 3.84 3.84z" stroke="#fff" stroke-linecap="round" stroke-linejoin="round" stroke-width=".25"/><path d="m-838.878-3020.9447v16.32c0 2.1207-1.7192 3.84-3.84 3.84h-3.4248c-2.1207 0-3.84-1.7193-3.84-3.84v-16.32c0-2.1208 1.7193-3.84 3.84-3.84h3.4248c2.1208 0 3.84 1.7192 3.84 3.84z" fill="#666"/><path d="m-838.878-3020.9447v16.32c0 2.1207-1.7192 3.84-3.84 3.84h-3.4248c-2.1207 0-3.84-1.7193-3.84-3.84v-16.32c0-2.1208 1.7193-3.84 3.84-3.84h3.4248c2.1208 0 3.84 1.7192 3.84 3.84z" stroke="#fff" stroke-linecap="round" stroke-linejoin="round" stroke-width=".25"/></g></svg>

<?xml version="1.0" encoding="UTF-8" standalone="no"?>
<!DOCTYPE svg PUBLIC "-//W3C//DTD SVG 1.1//EN" "http://www.w3.org/Graphics/SVG/1.1/DTD/svg11.dtd">
<svg xmlns="http://www.w3.org/2000/svg" xmlns:xl="http://www.w3.org/1999/xlink" version="1.1" xmlns:dc="http://purl.org/dc/elements/1.1/" viewBox="-850.4828 -3025.2847 25 25" width="25" height="25">
  <defs/>
  <g id="SOURCES" stroke-opacity="1" fill="none" stroke="none" fill-opacity="1" stroke-dasharray="none">
    <title>SOURCES</title>
    <g id="SOURCES_Dark">
      <title>Dark</title>
      <g id="Graphic_11113">
        <path d="M -825.9828 -3020.9447 L -825.9828 -3004.6247 C -825.9828 -3002.504 -827.702 -3000.7847 -829.8228 -3000.7847 L -833.2475 -3000.7847 C -835.3683 -3000.7847 -837.0875 -3002.504 -837.0875 -3004.6247 L -837.0875 -3020.9447 C -837.0875 -3023.0655 -835.3683 -3024.7847 -833.2475 -3024.7847 L -829.8228 -3024.7847 C -827.702 -3024.7847 -825.9828 -3023.0655 -825.9828 -3020.9447 Z" fill="#666"/>
        <path d="M -825.9828 -3020.9447 L -825.9828 -3004.6247 C -825.9828 -3002.504 -827.702 -3000.7847 -829.8228 -3000.7847 L -833.2475 -3000.7847 C -835.3683 -3000.7847 -837.0875 -3002.504 -837.0875 -3004.6247 L -837.0875 -3020.9447 C -837.0875 -3023.0655 -835.3683 -3024.7847 -833.2475 -3024.7847 L -829.8228 -3024.7847 C -827.702 -3024.7847 -825.9828 -3023.0655 -825.9828 -3020.9447 Z" stroke="white" stroke-linecap="round" stroke-linejoin="round" stroke-width=".25"/>
      </g>
      <g id="Graphic_11112">
        <path d="M -838.878 -3020.9447 L -838.878 -3004.6247 C -838.878 -3002.504 -840.5972 -3000.7847 -842.718 -3000.7847 L -846.1428 -3000.7847 C -848.2635 -3000.7847 -849.9828 -3002.504 -849.9828 -3004.6247 L -849.9828 -3020.9447 C -849.9828 -3023.0655 -848.2635 -3024.7847 -846.1428 -3024.7847 L -842.718 -3024.7847 C -840.5972 -3024.7847 -838.878 -3023.0655 -838.878 -3020.9447 Z" fill="#666"/>
        <path d="M -838.878 -3020.9447 L -838.878 -3004.6247 C -838.878 -3002.504 -840.5972 -3000.7847 -842.718 -3000.7847 L -846.1428 -3000.7847 C -848.2635 -3000.7847 -849.9828 -3002.504 -849.9828 -3004.6247 L -849.9828 -3020.9447 C -849.9828 -3023.0655 -848.2635 -3024.7847 -846.1428 -3024.7847 L -842.718 -3024.7847 C -840.5972 -3024.7847 -838.878 -3023.0655 -838.878 -3020.9447 Z" stroke="white" stroke-linecap="round" stroke-linejoin="round" stroke-width=".25"/>
      </g>
    </g>
  </g>
</svg>
